X: 1
T: String Quartet in E\b Major opus 17 no 3 mvt 1
C: Franz Joseph Haydn
%%abc-version 2.0
%%abcx-abcm2ps-target-version 5.9.1 (29 Sep 2008)
%%abc-creator hum2abc beta
%%abcx-conversion-date 2021/02/14 14:38:12
%%abc-copyright Copyright (c) 1994, 2000 Center for Computer Assisted Research in the Humanities
%%abc-edited-by Frances Bennion
%%abcx-initial-encoding-date 1997/04/15
%%gracespace 0 6 6
%%humdrum-veritas 3790131135
%%humdrum-veritas-data 1007662397
%%linebreak <none>
%%barnumbers 0
L: 1/16
M: 2/4
N: Derived from op17n3-01.krn
Q: "Andante grazioso"
%%staves [1 2 3 4]
V: 1
V: 2
V: 3 clef=alto
V: 4 clef=bass
K: Eb
[V:1]z6 B2 [I:setbarnb1]|
[V:2]z6 z2 |
[V:3]z6 z2 |
[V:4]z6 z2 |
[V:1]e2B2 B3c/B/ |
[V:2][B,2G2]z2 [A2B,2]z2 |
[V:3]E2z2 F2z2 |
[V:4]E,2z2 D,2z2 |
[V:1]G2FE D2CB, |
[V:2][B,4G4] z2D2 |
[V:3]E4 z2B,2 |
[V:4]E,4 z2A,2 |
[V:1]E2g2 e2dc |
[V:2]E4 z2E2- |
[V:3]B,4 z2G2 |
[V:4]G,4 z2E,2 |
[V:1]A4 G2B2 |
[V:2]E2D2 E2z2 |
[V:3]C2D2 E2z2 |
[V:4]F,2B,,2 E,2z2 |
[V:1]g2B2 b3=a/g/ |
[V:2]B4 z2B2 |
[V:3]E4 z2GE |
[V:4]E,4 z2E,2 |
[V:1]f2B2 b3^f |
[V:2]B4 z2B,2 |
[V:3]B4 z2FD |
[V:4]D,4 z2D,2 |
[V:1]g>de>c B2cB |
[V:2]B,2>C2 D2ED |
[V:3]E2G,2 F,2=A,2 |
[V:4]E,4 F,2F,2 |
[V:1]B4 z2B,2 |
[V:2]D4 z4 |
[V:3]B,4 z4 |
[V:4]B,,2B,2 B,,2z2 |
[V:1]B3A/G/ F2=E2 |
[V:2]z2_D2 C2C2 |
[V:3]z2B,2 A,2G,2 |
[V:4]z2B,,2 C,2B,,2 |
[V:1]F2A2 G2B2 |
[V:2]C8- |
[V:3]F,2C4 G,2 |
[V:4]A,,2F,,4 =E,,2 |
[V:1]AFc2 A2GF |
[V:2]C2B,2 C2C2 |
[V:3]A,6 =A,2 |
[V:4]F,,4 A,,2=A,,2 |
[V:1]E4 D2B2 |
[V:2]B,4 B4- |
[V:3]F,6 D2 |
[V:4]B,,2B,2 B,2B,,2 |
[V:1](3:2:2c4-c/ff f|
[V:2]B2G2 A4- |
[V:3]E4 F4 |
[V:4]B,,2B,,2 B,,2B,,2 |
[V:1]fB2<B2 eee |
[V:2]A2F2 G4- |
[V:3]D4 E4 |
[V:4]B,,2B,,2 B,,2B,,2 |
[V:1]eAA4 cB/A/ |
[V:2]G2E2 F4 |
[V:3]C4 D4 |
[V:4]B,,2B,,2 B,,2B,,2 |
[V:1]G2A2 B2c2 |
[V:2]E2F2 G2A2 |
[V:3]E4 z4 |
[V:4]E,4 z4 |
[V:1]_d2d2 d2d2 |
[V:2]B2B2 B2B2 |
[V:3]z2E2 E2E2 |
[V:4]z2G,,2 G,,2G,,2 |
[V:1]_d4 =B4 |
[V:2]B2E4 E2- |
[V:3]E8 |
[V:4]G,,8 |
[V:1]cd/e/cB/A/ G2F2 |
[V:2]E2E4 D2 |
[V:3]E2>C2 B,2A,2 |
[V:4]A,,4 B,,2B,,2 |
[V:1]E4 z2B2 |
[V:2]E4 z4 |
[V:3]G,4 z4 |
[V:4]E,2B,,2 E,,2z2 |
[V:1](3egf(3edc (3B=AB(3cB_A |
[V:2][G2B,2]z2 [A2B,2]z2 |
[V:3]E2z2 F2z2 |
[V:4]E,2z2 D,2z2 |
[V:1](3GBA(3GFE (3DFE(3DCB, |
[V:2][B,4G4] z2D2 |
[V:3]E4 z2[F,2B,2] |
[V:4]E,4 z2A,2 |
[V:1](3EGB(3deB (3gde(3gGc |
[V:2]E4 z2E2- |
[V:3][E,4B,4] z2G2 |
[V:4]G,4 z2E,2 |
[V:1]A4 G2B2 |
[V:2]E2D2 E2z2 |
[V:3]C2D2 E2z2 |
[V:4]F,2B,,2 E,2z2 |
[V:1](3g^fg(3bge (3BGE(3b=ag |
[V:2]B4 z2B2 |
[V:3]E4 z2G2 |
[V:4]E,4 z2E,2 |
[V:1](3fd'c'(3bf'e' (3d'c'b(3agf |
[V:2]B4 z2B2 |
[V:3]F4 z2F2 |
[V:4]D,4 z2D,2 |
[V:1](3gb=a(3gfe d2c2 |
[V:2](3Bgf(3edc B2=A2 |
[V:3]E4 F2E2 |
[V:4]E,4 F,2F,2 |
[V:1]B4 z2B2 |
[V:2]B4 z4 |
[V:3]D4 z4 |
[V:4]B,,2B,2 B,,2z2 |
[V:1](3gba(3g_d'c' (3bag(3f=eg |
[V:2]z2_D2 D2D2 |
[V:3]z2G2 G2G2 |
[V:4]z2B,2 B,2B,2 |
[V:1](3fcc(3ccc (3cBc(3_dcB |
[V:2]C2z2 G2z2 |
[V:3]A2z2 C2z2 |
[V:4]A,2z2 =E,2z2 |
[V:1](3A=EF(3A,CF (3AcB(3AGF |
[V:2]A2z4 C2 |
[V:3]C2z4 F,2 |
[V:4]F,2z4 A,,2 |
[V:1]E4 D2B2 |
[V:2]B,4 B4- |
[V:3]F,6 D2 |
[V:4]B,,2B,2 B,,2B,,2 |
[V:1](3cd=B(3cdB (3c=ef(3aef |
[V:2]B4 A4- |
[V:3]E2G2 F4 |
[V:4]B,,2B,,2 B,,2B,,2 |
[V:1](3Bc=A(3BcA (3Bde(3gde |
[V:2]A4 G4- |
[V:3]D2F2 E4 |
[V:4]B,,2B,,2 B,,2B,,2 |
[V:1](3ABG(3ABG (3Aaf(3dBA |
[V:2]G4 F4 |
[V:3]C2E2 D4 |
[V:4]B,,2B,,2 B,,2B,,2 |
[V:1](3Gee(3Aee (3Bee(3cee |
[V:2]E2F2 G2A2 |
[V:3]E4 z4 |
[V:4]E,4 z4 |
[V:1](3e_d_d'(3bge (3dBG(3E_DB |
[V:2]B2E2 E2E2 |
[V:3]z2B,2 B,2B,2 |
[V:4]z2G,,2 G,,2G,,2 |
[V:1]_D4 [G,3_d3E3]=B |
[V:2]E8- |
[V:3]B,4 E4 |
[V:4]G,,8 |
[V:1]cd/e/cB/A/ G2F2 |
[V:2]E2E4 D2 |
[V:3]E2A,2 B,2A,2 |
[V:4]A,,4 B,,2B,,2 |
[V:1]E4 z2B2 |
[V:2]E4 z4 |
[V:3]G,4 z4 |
[V:4]E,2B,,2 E,,2z2 |
[V:1]e2b2 b2b2 |
[V:2]z(3G/A/G/BG z(3A/B/A/fA |
[V:3]z(3E/F/E/GE z(3F/G/F/AF |
[V:4]E,2z2 D,2z2 |
[V:1]be'2<b2 bbb |
[V:2]z(3G/A/G/BG z(3F/G/F/dF |
[V:3]z(3E/F/E/GE z(3D/E/D/BD |
[V:4]E,2z2 A,2z2 |
[V:1]be'bb bg'e'd'/c'/ |
[V:2]z(3G/A/G/BG z(3G/A/G/BG |
[V:3]z(3E/F/E/GE z(3E/F/E/GE |
[V:4]G,2z2 E,2z2 |
[V:1]a4 g2B2 |
[V:2]zFzF z(3G/A/G/BG |
[V:3]zEzD z(3E/F/E/GE |
[V:4]F,2B,,2 E,2z2 |
[V:1]gbbb2 <b2=a/b/ |
[V:2]z(3G/A/G/BG z(3G/A/G/gG |
[V:3]z(3E/F/E/GE z(3E/F/E/eE |
[V:4]E,2z2 E,2z2 |
[V:1]fbbb2 <b2=a/b/ |
[V:2]z(3F/G/F/dF z(3F/G/F/fF |
[V:3]z(3D/E/D/B,D z(3D/E/D/dD |
[V:4]B,2z2 B,2z2 |
[V:1]gee'c' b2=a2 |
[V:2]z(3G/A/G/ce zdzc |
[V:3]z(3E/F/E/GE zFzE |
[V:4]E,2z2 F,2F,2 |
[V:1]b4 z2B2 |
[V:2]z(3B/c/B/dB B,2z2 |
[V:3]z(3D/E/D/FD B2z2 |
[V:4]B,,2z6 |
[V:1](3:2:2b2-b//a/g/f/=e2 g2|
[V:2]z(3_D/E/D/BD z(3C/D/C/=EC |
[V:3]z(3F/G/F/_DF zGC=E |
[V:4]B,,2z2 B,,2z2 |
[V:1]f2a2 g2b2 |
[V:2]zczc zczc |
[V:3]zFzF zGz=E |
[V:4]A,,2F,,2 =E,,2C,,2 |
[V:1]afc'2 a2gf |
[V:2]z(3c/_d/c/Ac zczc |
[V:3]z(3A/B/A/FA zFzF |
[V:4]F,,2z2 A,,2=A,,2 |
[V:1]e4 d2b2 |
[V:2]z(3F/G/F/eF z(3F/G/F/dF |
[V:3]z(3F/G/F/cF z(3D/E/D/FD |
[V:4]B,,2z2 B,,2z2 |
[V:1](3:2:2c'4-c'/ff f|
[V:2]z(3G/A/G/BG z(3A/B/A/cA |
[V:3]z(3E/F/E/GE z(3F/G/F/AF |
[V:4]B,,2z2 B,,2z2 |
[V:1]fb2<b2 eee |
[V:2]z(3F/G/F/AF z(3G/A/G/BG |
[V:3]z(3D/E/D/FD z(3E/F/E/GE |
[V:4]B,,2z2 B,,2z2 |
[V:1]ea2<a2 AAA |
[V:2]z(3E/F/E/GE z(3F/G/F/AF |
[V:3]z(3C/D/C/EC z(3D/E/D/FD |
[V:4]B,,2z2 B,,2z2 |
[V:1]G2A2 B2c2 |
[V:2]zEzF zGzA |
[V:3]zEzE zEzE |
[V:4]E,2E,2 E,2E,2 |
[V:1]_d2d2 d2d2 |
[V:2]z(3B/c/B/_dB z(3B/c/B/dB |
[V:3]z(3G/A/G/BG z(3G/A/G/BG |
[V:4]E,2G,,2 G,,2G,,2 |
[V:1]_d8 |
[V:2]zB2B2 B2B |
[V:3]zE2E2 E2E |
[V:4]G,,8 |
[V:1]cd/e/cB/A/ G2F2 |
[V:2]z(3F/G/F/AF zEzD |
[V:3]zAA,C zB,zA, |
[V:4]A,,2z2 B,,2B,,2 |
[V:1]E4 z2B2 |
[V:2]z(3E/F/E/GE e2z2 |
[V:3]z(3G,/A,/G,/B,G, E,2z2 |
[V:4]E,2B,,2 E,,2z2 |
[V:1]e/d/c/B/A/G/F/E/ D/E/F/E/D/C/B,/A,/ |
[V:2]G2z2 A2z2 |
[V:3]E2z2 F2z2 |
[V:4]E,2z2 B,,2z2 |
[V:1]G,/E/B/c/B/G/F/E/ D/E/F/E/D/C/B,/A,/ |
[V:2]G2z2 F2z2 |
[V:3]E2z2 A,2z2 |
[V:4]E,2z2 B,,2z2 |
[V:1]G,/E/D/E/G/E/B/G/ e/B/g/f/e/d/c/B/ |
[V:2]E4 z2E2- |
[V:3]G,4 z2G2 |
[V:4]E,4 z2E,2 |
[V:1]A4 G2B2 |
[V:2]E2D2 E2z2 |
[V:3]C2D2 E2z2 |
[V:4]F,2B,,2 E,2z2 |
[V:1]e/d/c/B/A/G/F/E/ b3g |
[V:2]G4 z2G2 |
[V:3]B,4 z2E2 |
[V:4]E,4 z2E,2 |
[V:1]f/d/c/B/=A/G/F/E/ D=ab^f |
[V:2]B4 z2B2 |
[V:3]F4 z2D2 |
[V:4]D,4 z2D,2 |
[V:1]g=Bce F2c2 |
[V:2]B2G>c B2=A2 |
[V:3]E4 D2E2 |
[V:4]E,4 F,2F,2 |
[V:1]B4 z2B2 |
[V:2]B4 z4 |
[V:3]D4 z4 |
[V:4]B,,2B,2 B,,2z2 |
[V:1]b/a/g/a/g/f/=e/f/ e[_de][ce][Be] |
[V:2]_d4 z2G2 |
[V:3]B,4 z2C2 |
[V:4]B,4 z2C2 |
[V:1]A/c/f/f<aF/ =E/c/g/g<bg/ |
[V:2]A2z2 G2z2 |
[V:3]C2z2 B,2z2 |
[V:4]F,2z2 C2z2 |
[V:1]a/f/=e/f/g/f/a/g/ b/a/d'/c'/b/a/g/f/ |
[V:2]F4 z2cA |
[V:3]A,4 z2F2 |
[V:4]F,4 z2F,2 |
[V:1]e4 dbb=b |
[V:2]G4 F2B2- |
[V:3]B,6 D2 |
[V:4]B,2B,,2 B,2B,,2 |
[V:1]c'/=b/c'/b/c'3 =e/f/e/f/e/f/ |
[V:2]B2B/c/B/c/ A4- |
[V:3]E4 F4 |
[V:4]B,,2B,,2 B,,2B,,2 |
[V:1]b/=a/b/a/b3 d/e/d/e/d/e/ |
[V:2]A2A/B/A/B/ G4- |
[V:3]D4 E4 |
[V:4]B,,2B,,2 B,,2B,,2 |
[V:1]a/g/a/g/a3 G/A/G/A/G/A/ |
[V:2]G2G/A/G/A/ F4 |
[V:3]C4 D4 |
[V:4]B,,2B,,2 B,,2B,,2 |
[V:1]G/e/g/e/A/e/g/e/ B/e/g/e/c/e/g/e/ |
[V:2]E2F2 G2A2 |
[V:3]E4 z4 |
[V:4]E,4 z4 |
[V:1]G/e/b/e/_d'/e/b/e/ G/e/b/e/d'/e/b/e/ |
[V:2]B2B2 B2B2 |
[V:3]z2E2 E2E2 |
[V:4]z2G,,2 G,,2G,,2 |
[V:1][_d'2e2G2]d'4 =b2 |
[V:2]B4 E4 |
[V:3]E8 |
[V:4]G,,8 |
[V:1]c'/d'/d'/e'/c'b/a/ g2f2 |
[V:2]E2E4 D2 |
[V:3]E2A,2 B,2A,2 |
[V:4]A,,4 B,,2B,,2 |
[V:1]e4 z2B2 |
[V:2]E4 z4 |
[V:3]G,4 z4 |
[V:4]E,2B,,2 E,,2z2 |
[V:1]e2B2 B3c/B/ |
[V:2][G2B,2]z2 [A2B,2]z2 |
[V:3]E2z2 F2z2 |
[V:4]E,,G,,B,,E, D,F,B,D, |
[V:1]G2FE D2CB, |
[V:2][B,4G4] z2D2 |
[V:3]E4 z2B,2 |
[V:4]E,G,B,G, F,A,B,A, |
[V:1]E2g2 e2dc |
[V:2]E4 z2E2- |
[V:3]B,4 z2G2 |
[V:4]G,B,E,G, B,,E,G,,E, |
[V:1]A4 G2B2 |
[V:2]E2D2 E2z2 |
[V:3]C2D2 E2z2 |
[V:4]F,,F,B,,B, E,,2z2 |
[V:1]g2B2 b3=a/g/ |
[V:2]B4 z2B2 |
[V:3]E4 z2GE |
[V:4]E,,G,,B,,E, G,E,E,,E, |
[V:1]f2B2 b3^f |
[V:2]B4 z2B,2 |
[V:3]B2z4 FD |
[V:4]D,,F,,B,,D, F,D,D,,D, |
[V:1]g>de>c B2c3/B/ |
[V:2]B,2>C2 D2E3/D/ |
[V:3]E2G,2 F,2=A,2 |
[V:4]E,,G,,B,,E, F,B,F,,=A, |
[V:1]B4 z2B,2 |
[V:2]D4 z4 |
[V:3]B,4 z4 |
[V:4]B,,D,F,B, B,,2z2 |
[V:1]B3A/G/ F2=E2 |
[V:2]z2_D2 C2C2 |
[V:3]z2B,2 A,2G,2 |
[V:4]B,,_D,F,B, C_DCB, |
[V:1]F2A2 G2B2 |
[V:2]C8- |
[V:3]F,2C4 C2 |
[V:4]A,CF,C =E,G,C,E, |
[V:1]AFc2 A2GF |
[V:2]C2B,2 C2C2 |
[V:3]F,8- |
[V:4]F,,F,=E,F, A,,F,=A,,F, |
[V:1]E4 D2B2 |
[V:2]B,6 D2 |
[V:3]F,4 B,4- |
[V:4]B,,B,=A,B, B,,B,B,,B, |
[V:1](3:2:2c4-c/de f|
[V:2]E4 F4 |
[V:3]B,8- |
[V:4]B,,B,B,,B, B,,A,B,,A, |
[V:1]fB2<B2 cde |
[V:2]D4 E4 |
[V:3]B,8- |
[V:4]B,,A,B,,A, B,,G,B,,G, |
[V:1]eAA4 cB/A/ |
[V:2]C4 D4 |
[V:3]B,8 |
[V:4]B,,G,B,,G, B,,F,B,,F, |
[V:1]G2A2 B2c2 |
[V:2]E4 z4 |
[V:3]E4 z4 |
[V:4]E,,E,F,,E, G,,E,A,,E, |
[V:1]_d2d2 d2d2 |
[V:2]z2B2 B2B2 |
[V:3]z2E2 E2E2 |
[V:4]B,,E,,G,,B,, E,G,B,_D |
[V:1]_d4 =B4 |
[V:2]B2E4 E2- |
[V:3]E8 |
[V:4]G,,8 |
[V:1]cd/e/cB/A/ G2F2 |
[V:2]E2E4 D2 |
[V:3]E2A,2 B,2A,2 |
[V:4]A,,4 B,,2B,,2 |
[V:1]E4 z4 |]
[V:2]E4 z4 |]
[V:3]G,4 z4 |]
[V:4]E,2B,,2 E,,2z2 |]

